src/lib/packages/icons/src/assets/filled/cloud-shield.svg

<svg width="24" height="24" viewBox="0 0 24 24" fill="none" xmlns="http://www.w3.org/2000/svg">
<path d="M22 13C22 15.76 19.76 18 17 18H10.5C10.294 18 10.0921 17.99 9.89209 17.971C9.68409 17.95 9.59092 17.72 9.69092 17.544C10.1909 16.714 10.5 15.724 10.5 14.561V12.281C10.5 11.591 10.0301 10.991 9.37012 10.821C7.68012 10.391 6.89994 10.031 6.18994 9.66101C5.97994 9.55101 5.74001 9.50098 5.51001 9.50098C5.28001 9.50098 5.04008 9.55101 4.83008 9.66101C4.50308 9.81501 4.31092 9.51899 4.38892 9.29999C5.28492 6.79399 7.685 5.00098 10.5 5.00098C12.15 5.00098 13.65 5.61097 14.79 6.62097C15.27 7.05097 15.69 7.541 16.03 8.091C16.35 8.031 16.67 8.00098 17 8.00098C19.76 7.99998 22 10.24 22 13ZM2 12.333C2 12.788 2 14.081 2 14.555C2 17.222 4.188 18.555 5.5 18.999C6.812 18.555 9 17.221 9 14.555C9 14.065 9 12.753 9 12.275C7.25 11.831 6.37508 11.444 5.50708 11C4.62508 11.444 3.75 11.831 2 12.333Z" fill="currentColor"/>
</svg>

<svg xmlns="http://www.w3.org/2000/svg" width="24" height="24" fill="none"><path fill="currentColor" d="M22 13c0 2.76-2.24 5-5 5h-6.5c-.206 0-.408-.01-.608-.029-.208-.021-.301-.251-.201-.427.5-.83.809-1.82.809-2.983v-2.28c0-.69-.47-1.29-1.13-1.46-1.69-.43-2.47-.79-3.18-1.16-.21-.11-.45-.16-.68-.16-.23 0-.47.05-.68.16-.327.154-.52-.142-.441-.361A6.491 6.491 0 0 1 10.5 5.001c1.65 0 3.15.61 4.29 1.62.48.43.9.92 1.24 1.47.32-.06.64-.09.97-.09A5 5 0 0 1 22 13Zm-20-.667v2.222c0 2.667 2.188 4 3.5 4.444 1.312-.444 3.5-1.778 3.5-4.444v-2.28c-1.75-.444-2.625-.831-3.493-1.275-.882.444-1.757.831-3.507 1.333Z"/></svg>
